X: 30744
T: Oró A Bhuachaillín
R: slide
M: 12/8
K: Gmajor
|:A|B2 B BAG c2 c cBA|BcB BdB A2 G FED|
B2 B B2 G c2 c c2 A|BcB ABA G3 G2:|
|:E|D2 C B,A,G, B,2 D D2 F|G2 G FED E2 A, A,2 B,|
D2 C B,A,G, B,2 D D2 G|F2 E DEF G3 G2:|

